src/assets/img/logo-bright.svg

<?xml version="1.0" encoding="UTF-8" standalone="no"?>
<svg
   xmlns:dc="http://purl.org/dc/elements/1.1/"
   xmlns:cc="http://creativecommons.org/ns#"
   xmlns:rdf="http://www.w3.org/1999/02/22-rdf-syntax-ns#"
   xmlns:svg="http://www.w3.org/2000/svg"
   xmlns="http://www.w3.org/2000/svg"
   xmlns:sodipodi="http://sodipodi.sourceforge.net/DTD/sodipodi-0.dtd"
   xmlns:inkscape="http://www.inkscape.org/namespaces/inkscape"
   width="225"
   height="52"
   viewBox="0 0 225 52"
   version="1.1"
   id="svg8"
   sodipodi:docname="logo-light.svg"
   inkscape:version="1.0.2-2 (e86c870879, 2021-01-15)">
  <metadata
     id="metadata14">
    <rdf:RDF>
      <cc:Work
         rdf:about="">
        <dc:format>image/svg+xml</dc:format>
        <dc:type
           rdf:resource="http://purl.org/dc/dcmitype/StillImage" />
        <dc:title></dc:title>
      </cc:Work>
    </rdf:RDF>
  </metadata>
  <defs
     id="defs12" />
  <sodipodi:namedview
     pagecolor="#ffffff"
     bordercolor="#666666"
     borderopacity="1"
     objecttolerance="10"
     gridtolerance="10"
     guidetolerance="10"
     inkscape:pageopacity="0"
     inkscape:pageshadow="2"
     inkscape:window-width="2400"
     inkscape:window-height="1272"
     id="namedview10"
     showgrid="false"
     inkscape:zoom="4.8888889"
     inkscape:cx="124.25208"
     inkscape:cy="26"
     inkscape:window-x="4792"
     inkscape:window-y="-8"
     inkscape:window-maximized="1"
     inkscape:current-layer="svg8" />
  <path
     fill="#2a2c2f"
     fill-rule="nonzero"
     d="m 74.4,14.352 v 21.28 c 0,4.8 -2.24,6.72 -6.24,6.72 -1.76,0 -3.68,-0.32 -4.16,-0.544 l 0.32,-5.216 c 0.48,0.16 1.12,0.32 1.76,0.32 0.64,0 1.12,-0.16 1.12,-1.28 v -21.28 z m 18.76,0 7.68,22.08 H 93 L 92.136,33.328 H 85.832 L 85,36.432 h -7.52 l 7.68,-22.08 z m -5.792,13.44 h 3.264 L 89,21.872 Z m 41.352,-13.44 1.28,22.08 h -7.104 l -0.256,-12.64 -2.88,12.64 h -6.24 l -2.88,-12.64 -0.256,12.64 h -7.104 l 1.28,-22.08 h 9.28 l 2.784,12 2.816,-12 z m 26.44,11.04 c 0,4.48 -1.6,7.04 -3.68,8.64 -2.08,1.6 -4.96,2.4 -8.8,2.4 h -8.32 v -22.08 h 8.32 c 3.84,0 6.72,0.8 8.8,2.4 2.08,1.6 3.68,4.16 3.68,8.64 z m -7.296,0 c 0,-2.24 -0.608,-3.36 -1.28,-4 -0.64,-0.64 -1.76,-1.12 -3.36,-1.12 H 141.56 V 22.704545 30.352 h 1.664 c 1.6,0 2.72,-0.48 3.36,-1.12 0.64,-0.64 1.28,-1.6 1.28,-3.84 z m 34.376,0.032 c 0,7.2 -5.12,11.392 -12,11.392 -6.88,0 -12,-4.192 -12,-11.392 0,-7.2 5.12,-11.424 12,-11.424 6.88,0 12,4.224 12,11.424 z m -7.296,-0.16 c 0,-3.04 -1.824,-5.152 -4.704,-5.152 -2.88,0 -4.736,2.112 -4.736,5.152 0,3.04 1.856,5.152 4.736,5.152 2.88,0 4.704,-2.112 4.704,-5.152 z m 27.976,3.008 2.08,5.76 c -0.8,0.8 -3.04,2.784 -7.84,2.784 -6.56,0 -11.84,-4.032 -11.84,-11.392 0,-7.36 5.28,-11.392 11.84,-11.392 4.96,0 7.36,2.08 7.36,2.08 l -1.92,6.08 c 0,0 -2.24,-1.92 -4.96,-1.92 -2.72,0 -5.056,1.6 -5.056,5.056 0,3.424 2.496,4.96 5.056,4.96 2.56,0 4.32,-1.056 5.28,-2.016 z m 21.8,0.896 c 0,2.304 -1.12,4.384 -2.88,5.76 -1.76,1.344 -3.968,1.888 -6.528,1.888 -2.56,0 -5.504,-0.704 -8.512,-2.944 l 3.2,-5.44 c 2.048,1.728 4.928,2.4 5.888,2.4 0.96,0 1.632,-0.288 1.632,-0.928 0,-0.64 -0.8,-0.896 -1.6,-1.152 -0.8,-0.224 -2.56,-0.8 -3.2,-1.024 -0.64,-0.256 -1.92,-0.672 -3.04,-1.632 -1.12,-0.96 -2.016,-2.304 -2.016,-4.704 0,-2.4 1.248,-4.256 2.56,-5.344 1.344,-1.12 3.552,-1.92 6.496,-1.92 2.944,0 5.952,1.056 7.872,2.656 l -2.752,5.12 c -1.664,-1.472 -4.096,-2.112 -5.248,-2.112 -1.152,0 -1.792,0.224 -1.792,0.896 0,0.64 1.024,0.864 1.536,1.024 0.512,0.16 1.856,0.544 2.624,0.8 0.768,0.256 2.56,0.896 3.68,1.856 1.12,0.96 2.08,2.464 2.08,4.8 z"
     id="path2"
     sodipodi:nodetypes="cssccsscccccccccccccccccccccccccccccsssccsssscscccsssssssssssssccsssccssscscsccssccsscsccssssss"
     style="display:none" />
  <polygon
     fill="#54D28F"
     points="0 26 26 52 52 26 26 0 26 26"
     id="polygon4" />
  <polygon
     fill="#000"
     points="26 26 26 52 13 26"
     opacity=".1"
     id="polygon6" />
  <text
     xml:space="preserve"
     style="font-style:normal;font-weight:normal;font-size:40px;line-height:1.25;font-family:sans-serif;fill:#000000;fill-opacity:1;stroke:none"
     x="57.272728"
     y="10.636364"
     id="text18"><tspan
       sodipodi:role="line"
       id="tspan16"
       x="57.272728"
       y="10.636364" /></text>
  <text
     xml:space="preserve"
     style="font-style:normal;font-variant:normal;font-weight:bold;font-stretch:normal;font-size:37.3333px;line-height:1.25;font-family:'Berlin Sans FB Demi';-inkscape-font-specification:'Berlin Sans FB Demi Bold';fill:#2a2c2f;fill-opacity:1;stroke:none"
     x="57.068184"
     y="40.704548"
     id="text22"><tspan
       sodipodi:role="line"
       id="tspan20"
       x="57.068184"
       y="40.704548"
       style="font-style:normal;font-variant:normal;font-weight:bold;font-stretch:normal;font-size:37.3333px;font-family:'Berlin Sans FB Demi';-inkscape-font-specification:'Berlin Sans FB Demi Bold';fill:#2a2c2f;fill-opacity:1">HairMore</tspan></text>
  <text
     xml:space="preserve"
     style="font-style:normal;font-variant:normal;font-weight:bold;font-stretch:normal;font-size:37.3333px;line-height:1.25;font-family:'Berlin Sans FB Demi';-inkscape-font-specification:'Berlin Sans FB Demi Bold';fill:#ffffff;fill-opacity:1;stroke:none"
     x="57.079918"
     y="40.74379"
     id="text22-7"><tspan
       sodipodi:role="line"
       id="tspan20-4"
       x="57.079918"
       y="40.74379"
       style="font-style:normal;font-variant:normal;font-weight:bold;font-stretch:normal;font-size:37.3333px;font-family:'Berlin Sans FB Demi';-inkscape-font-specification:'Berlin Sans FB Demi Bold';fill:#ffffff;fill-opacity:1">HairMore</tspan></text>
</svg>

<svg xmlns="http://www.w3.org/2000/svg" width="225" height="52" viewBox="0 0 225 52">
  <path fill="#FFFFFF" fill-rule="nonzero" d="M74.4,14.352 L74.4,35.632 C74.4,40.432 72.16,42.352 68.16,42.352 C66.4,42.352 64.48,42.032 64,41.808 L64.32,36.592 C64.8,36.752 65.44,36.912 66.08,36.912 C66.72,36.912 67.2,36.752 67.2,35.632 L67.2,14.352 L74.4,14.352 Z M93.16,14.352 L100.84,36.432 L93,36.432 L92.136,33.328 L85.832,33.328 L85,36.432 L77.48,36.432 L85.16,14.352 L93.16,14.352 Z M87.368,27.792 L90.632,27.792 L89,21.872 L87.368,27.792 Z M128.72,14.352 L130,36.432 L122.896,36.432 L122.64,23.792 L119.76,36.432 L113.52,36.432 L110.64,23.792 L110.384,36.432 L103.28,36.432 L104.56,14.352 L113.84,14.352 L116.624,26.352 L119.44,14.352 L128.72,14.352 Z M155.16,25.392 C155.16,29.872 153.56,32.432 151.48,34.032 C149.4,35.632 146.52,36.432 142.68,36.432 L134.36,36.432 L134.36,14.352 L142.68,14.352 C146.52,14.352 149.4,15.152 151.48,16.752 C153.56,18.352 155.16,20.912 155.16,25.392 Z M147.864,25.392 C147.864,23.152 147.256,22.032 146.584,21.392 C145.944,20.752 144.824,20.272 143.224,20.272 L141.56,20.272 L141.56,30.352 L143.224,30.352 C144.824,30.352 145.944,29.872 146.584,29.232 C147.224,28.592 147.864,27.632 147.864,25.392 Z M182.24,25.424 C182.24,32.624 177.12,36.816 170.24,36.816 C163.36,36.816 158.24,32.624 158.24,25.424 C158.24,18.224 163.36,14 170.24,14 C177.12,14 182.24,18.224 182.24,25.424 Z M174.944,25.264 C174.944,22.224 173.12,20.112 170.24,20.112 C167.36,20.112 165.504,22.224 165.504,25.264 C165.504,28.304 167.36,30.416 170.24,30.416 C173.12,30.416 174.944,28.304 174.944,25.264 Z M202.92,28.272 L205,34.032 C204.2,34.832 201.96,36.816 197.16,36.816 C190.6,36.816 185.32,32.784 185.32,25.424 C185.32,18.064 190.6,14.032 197.16,14.032 C202.12,14.032 204.52,16.112 204.52,16.112 L202.6,22.192 C202.6,22.192 200.36,20.272 197.64,20.272 C194.92,20.272 192.584,21.872 192.584,25.328 C192.584,28.752 195.08,30.288 197.64,30.288 C200.2,30.288 201.96,29.232 202.92,28.272 Z M224.72,29.168 C224.72,31.472 223.6,33.552 221.84,34.928 C220.08,36.272 217.872,36.816 215.312,36.816 C212.752,36.816 209.808,36.112 206.8,33.872 L210,28.432 C212.048,30.16 214.928,30.832 215.888,30.832 C216.848,30.832 217.52,30.544 217.52,29.904 C217.52,29.264 216.72,29.008 215.92,28.752 C215.12,28.528 213.36,27.952 212.72,27.728 C212.08,27.472 210.8,27.056 209.68,26.096 C208.56,25.136 207.664,23.792 207.664,21.392 C207.664,18.992 208.912,17.136 210.224,16.048 C211.568,14.928 213.776,14.128 216.72,14.128 C219.664,14.128 222.672,15.184 224.592,16.784 L221.84,21.904 C220.176,20.432 217.744,19.792 216.592,19.792 C215.44,19.792 214.8,20.016 214.8,20.688 C214.8,21.328 215.824,21.552 216.336,21.712 C216.848,21.872 218.192,22.256 218.96,22.512 C219.728,22.768 221.52,23.408 222.64,24.368 C223.76,25.328 224.72,26.832 224.72,29.168 Z"/>
  <polygon fill="#54D28F" points="0 26 26 52 52 26 26 0 26 26"/>
  <polygon fill="#000" points="26 26 26 52 13 26" opacity=".1"/>
</svg>
